X:38
T:Skaffarepolskan
R:sl-polska
H:efter Florsen i Burs
H:andra delen jfr nr 45 & 78
A:Gotland
Z:id:hn-sp-38
M:3/4
L:1/16
K:D
D2FA dcBA GFED | DFAd dcBc c2d2 | d2ef gfge gfed | dcdf edcB AGFE |
FDFA dcBA GFED | DFAd dcBc c2d2 | d2ef gfge gfed | cdBc c2d2 d4 :|
|: d3d' d'2d'2 d'2d'2 | d'3c' c'2a2 a2c'2 | c'3b b2g2 g2b2 |
b3a a^gab a4 | e3f g2g2 bgeg | g3f f2f2 afdf | f3e e2e2 gfge |
dcdf edcB AGFE | FDEF GABc defg | bgec c2d2 d4 :|

